!!!PDT:	1923
!!!LANG: Non-Tone
!!!LING_GROUP: Siouan
!!!REG: Dakotas
!!!COM: Anon.
!!!OTL: I Cannot Sleep
!!!ODT: <1918//
!!!MPN: Kekahamahe [Little Crow], Belitake [Otter Woman, Mrs. Little Crow]
!!!MLC: Fort Berthold Reservation, North Dakota, United States of America
!! Song was recorded during either the summer of 1912, 1915, or 1918.
!!!AGN: monody
!!!SOCIAL_FUNCTION: Mandan and Hidatsa Men's Foolish Dog Society
!!!AMT: irregular
!!!RWG: Transcribed pitches, durations, and meters are only approximate.
!! Drum not recorded.
**kern
*ICvox
*Imale
*clefF4
*k[b-e-a-d-g-]
*M2/4
*MM84
=1-
8.F
16F
8.F
16B-
=2
8.B-
16A-
8.F
16F
=3
(12B-
12F
12E-)
8.D-
16E-
*M3/4
=4
8.D-
16BB-
8.BB-
16AA-
4FF
*M2/4
=5
8BB-
16BB-
16AA-
16BB-
8.AA-
*M3/4
=6
! added dot to eighth:
8.FF
16FF
2FF
*M2/4
=7
2FF
==
*-
!!!CNT: Mandan
!!!TXO: Mandan
!!!OCY: United States
!!!OCL: Frances Densmore
!!!YOR: Frances Densmore, "Mandan and Hidatsa Music",
!!!YOR: Bulletin 80, page 131, No. 63
!!!PPR: Smithsonian Institution, Bureau of American Ethnology
!!!PPR: Government Printing Office
!!!PDT: 1923
!!!PPP: Washington, DC, United States of America
!!!YEC: Electronic Copyright 2000 David Huron
!!!YER: August 2000
!!!YEN: United States of America
!!!ENC: David Huron
!!!RDT: August 17, 2000
!!!EEV: Release 1.0
!!!AIN: tom, vox
